images_breeze_svg/cmd/lc_saveasremote.svg

<svg viewBox="0 0 24 24" xmlns="http://www.w3.org/2000/svg"><path d="m4 3.9980469v.0019531 1 11h1v-11h3v4 1h8v-1-4h.292969l2.707031 2.7070312v.2929688 8h1v-8-.6992188h-.007812l.007812-.0097656-3.292969-3.2929687-.007812.0097656v-.0097656h-.699219zm5 1.0019531h3.900391v4h-3.900391zm-2 7v4h1v-3h8v3h1v-4h-1-8zm3 5v1h-6v1h6v1h4v-1h6v-1h-6v-1zm2 .5c.554 0 1 .446 1 1s-.446 1-1 1-1-.446-1-1 .446-1 1-1z" fill="#4d4d4d"/></svg>

<?xml version="1.0" encoding="UTF-8" standalone="no"?>
<svg
   xmlns:dc="http://purl.org/dc/elements/1.1/"
   xmlns:cc="http://creativecommons.org/ns#"
   xmlns:rdf="http://www.w3.org/1999/02/22-rdf-syntax-ns#"
   xmlns:svg="http://www.w3.org/2000/svg"
   xmlns="http://www.w3.org/2000/svg"
   xmlns:sodipodi="http://sodipodi.sourceforge.net/DTD/sodipodi-0.dtd"
   xmlns:inkscape="http://www.inkscape.org/namespaces/inkscape"
   viewBox="0 0 24 24"
   version="1.1"
   id="svg6"
   sodipodi:docname="lc_saveasremote.svg"
   inkscape:version="0.92.4 (unknown)"
   inkscape:export-filename="/home/rizmut/Dokumen/Rizmut/Github/tmp/breeze/cmd/lc_saveasremote.png"
   inkscape:export-xdpi="96"
   inkscape:export-ydpi="96">
  <metadata
     id="metadata10">
    <rdf:RDF>
      <cc:Work
         rdf:about="">
        <dc:format>image/svg+xml</dc:format>
        <dc:type
           rdf:resource="http://purl.org/dc/dcmitype/StillImage" />
        <dc:title></dc:title>
      </cc:Work>
    </rdf:RDF>
  </metadata>
  <sodipodi:namedview
     pagecolor="#ffffff"
     bordercolor="#666666"
     borderopacity="1"
     objecttolerance="10"
     gridtolerance="10"
     guidetolerance="10"
     inkscape:pageopacity="0"
     inkscape:pageshadow="2"
     inkscape:window-width="1360"
     inkscape:window-height="714"
     id="namedview8"
     showgrid="true"
     inkscape:zoom="13.906433"
     inkscape:cx="8.0422097"
     inkscape:cy="-4.4228079"
     inkscape:window-x="0"
     inkscape:window-y="28"
     inkscape:window-maximized="1"
     inkscape:current-layer="svg6">
    <inkscape:grid
       type="xygrid"
       id="grid842" />
  </sodipodi:namedview>
  <defs
     id="defs3051">
    <style
       type="text/css"
       id="current-color-scheme">
      .ColorScheme-Text {
        color:#4d4d4d;
      }
      </style>
  </defs>
  <path
     style="fill:#4d4d4d;fill-opacity:1;stroke:none"
     d="M 4 3.9980469 L 4 4 L 4 5 L 4 16 L 5 16 L 5 5 L 8 5 L 8 9 L 8 10 L 16 10 L 16 9 L 16 5 L 16.292969 5 L 19 7.7070312 L 19 8 L 19 16 L 20 16 L 20 8 L 20 7.3007812 L 19.992188 7.3007812 L 20 7.2910156 L 16.707031 3.9980469 L 16.699219 4.0078125 L 16.699219 3.9980469 L 16 3.9980469 L 4 3.9980469 z M 9 5 L 12.900391 5 L 12.900391 9 L 9 9 L 9 5 z M 7 12 L 7 16 L 8 16 L 8 13 L 16 13 L 16 16 L 17 16 L 17 12 L 16 12 L 8 12 L 7 12 z M 10 17 L 10 18 L 4 18 L 4 19 L 10 19 L 10 20 L 14 20 L 14 19 L 20 19 L 20 18 L 14 18 L 14 17 L 10 17 z M 12 17.5 C 12.554 17.5 13 17.946 13 18.5 C 13 19.054 12.554 19.5 12 19.5 C 11.446 19.5 11 19.054 11 18.5 C 11 17.946 11.446 17.5 12 17.5 z "
     id="path4" />
</svg>
